;FLAVOR:Marlin
;TIME:727
;Filament used: 0.542547m
;Layer height: 0.35
;MINX:34.084
;MINY:57.79
;MINZ:0.35
;MAXX:64.184
;MAXY:87.89
;MAXZ:32.2
;Generated with Cura_SteamEngine 4.8.0
M140 S65
M105
M190 S65
M104 S205
M105
M109 S205
M82 ;absolute extrusion mode
G21;(metric values)
G90;(absolute positioning)
M82;(set extruder to absolute mode)
M107;(start with the fan off)
G28;(Home the printer)
G92 E0;(Reset the extruder to 0)
G0 Z5 E5 F500;(Move up and prime the nozzle)
G0 X-1 Z0;(Move outside the printable area)
G1 Y60 E8 F500;(Draw a priming/wiping line to the rear)
G1 X-1;(Move a little closer to the print area)
G1 Y10 E16 F500;(draw more priming/wiping)
G1 E15 F250;(Small retract)
G92 E0;(Zero the extruder)
G92 E0
G92 E0
G1 F2400 E-2.5
;LAYER_COUNT:92
;LAYER:0
M107
G0 F4320 X36.678 Y58.497 Z0.35
;TYPE:SKIRT
G1 F2400 E0
G1 F1800 X37.245 Y58.208 E0.03241
G1 X37.844 Y57.992 E0.06484
G1 X38.466 Y57.853 E0.0973
G1 X39.262 Y57.79 E0.13797
G1 X59.006 Y57.79 E1.14352
G1 X59.642 Y57.83 E1.17598
G1 X60.267 Y57.949 E1.20838
G1 X60.873 Y58.146 E1.24083
G1 X61.449 Y58.417 E1.27325
G1 X61.987 Y58.758 E1.30569
G1 X62.595 Y59.276 E1.34637
G1 X62.698 Y59.379 E1.35379
G1 X63.119 Y59.857 E1.38623
G1 X63.477 Y60.384 E1.41868
G1 X63.766 Y60.951 E1.45109
G1 X63.982 Y61.55 E1.48352
G1 X64.121 Y62.172 E1.51598
G1 X64.184 Y62.968 E1.55665
G1 X64.184 Y82.712 E2.5622
G1 X64.144 Y83.348 E2.59466
G1 X64.025 Y83.973 E2.62706
G1 X63.828 Y84.579 E2.65951
G1 X63.557 Y85.155 E2.69193
G1 X63.216 Y85.693 E2.72437
G1 X62.698 Y86.301 E2.76505
G1 X62.595 Y86.404 E2.77247
G1 X62.117 Y86.825 E2.80491
G1 X61.59 Y87.183 E2.83736
G1 X61.023 Y87.472 E2.86977
G1 X60.424 Y87.688 E2.9022
G1 X59.802 Y87.827 E2.93466
G1 X59.006 Y87.89 E2.97533
G1 X39.262 Y87.89 E3.98088
G1 X38.626 Y87.85 E4.01333
G1 X38.001 Y87.731 E4.04574
G1 X37.395 Y87.534 E4.07819
G1 X36.819 Y87.263 E4.11061
G1 X36.281 Y86.922 E4.14305
G1 X35.673 Y86.404 E4.18373
G1 X35.57 Y86.301 E4.19115
G1 X35.149 Y85.823 E4.22359
G1 X34.791 Y85.296 E4.25604
G1 X34.502 Y84.729 E4.28845
G1 X34.286 Y84.13 E4.32088
G1 X34.147 Y83.508 E4.35334
G1 X34.084 Y82.712 E4.394
G1 X34.084 Y62.968 E5.39956
G1 X34.124 Y62.332 E5.43201
G1 X34.243 Y61.707 E5.46442
G1 X34.44 Y61.101 E5.49687
G1 X34.711 Y60.525 E5.52929
G1 X35.052 Y59.987 E5.56173
G1 X35.57 Y59.379 E5.60241
G1 X35.673 Y59.276 E5.60983
G1 X36.151 Y58.855 E5.64227
G1 X36.248 Y58.789 E5.64824
G0 F1620 X36.678 Y58.497
G0 F4320 X36.893 Y58.777
G1 F1800 X37.444 Y58.504 E5.67956
G1 X38.025 Y58.305 E5.71084
G1 X38.628 Y58.183 E5.74217
G1 X39.262 Y58.14 E5.77453
G1 X59.006 Y58.14 E6.78009
G1 X59.619 Y58.18 E6.81137
G1 X60.222 Y58.299 E6.84268
G1 X60.804 Y58.496 E6.87397
G1 X61.356 Y58.766 E6.90527
G1 X61.868 Y59.106 E6.93657
G1 X62.347 Y59.524 E6.96895
G1 X62.45 Y59.627 E6.97636
G1 X62.855 Y60.089 E7.00766
G1 X63.197 Y60.599 E7.03893
G1 X63.47 Y61.15 E7.07025
G1 X63.669 Y61.731 E7.10152
G1 X63.791 Y62.334 E7.13286
G1 X63.834 Y62.968 E7.16522
G1 X63.834 Y82.712 E8.17077
G1 X63.794 Y83.325 E8.20206
G1 X63.675 Y83.928 E8.23336
G1 X63.478 Y84.51 E8.26466
G1 X63.208 Y85.062 E8.29595
G1 X62.868 Y85.574 E8.32725
G1 X62.45 Y86.053 E8.35963
G1 X62.347 Y86.156 E8.36705
G1 X61.885 Y86.561 E8.39834
G1 X61.375 Y86.903 E8.42961
G1 X60.824 Y87.176 E8.46093
G1 X60.243 Y87.375 E8.49221
G1 X59.64 Y87.497 E8.52354
G1 X59.006 Y87.54 E8.55591
G1 X39.262 Y87.54 E9.56146
G1 X38.649 Y87.5 E9.59275
G1 X38.046 Y87.381 E9.62405
G1 X37.464 Y87.184 E9.65534
G1 X36.912 Y86.914 E9.68664
G1 X36.4 Y86.574 E9.71794
G1 X35.921 Y86.156 E9.75032
G1 X35.818 Y86.053 E9.75774
G1 X35.413 Y85.591 E9.78903
G1 X35.071 Y85.081 E9.8203
G1 X34.798 Y84.53 E9.85162
G1 X34.599 Y83.949 E9.8829
G1 X34.477 Y83.346 E9.91423
G1 X34.434 Y82.712 E9.94659
G1 X34.434 Y62.968 E10.95215
G1 X34.474 Y62.355 E10.98343
G1 X34.593 Y61.752 E11.01473
G1 X34.79 Y61.17 E11.04603
G1 X35.06 Y60.618 E11.07732
G1 X35.4 Y60.106 E11.10863
G1 X35.818 Y59.627 E11.141
G1 X35.921 Y59.524 E11.14842
G1 X36.383 Y59.119 E11.17971
G1 X36.462 Y59.066 E11.18456
G0 F1620 X36.893 Y58.777
G0 F4320 X37.108 Y59.057
G1 F1800 X37.641 Y58.802 E11.21465
G1 X38.203 Y58.62 E11.24474
G1 X38.785 Y58.516 E11.27485
G1 X39.262 Y58.49 E11.29918
G1 X59.006 Y58.49 E12.30473
G1 X59.596 Y58.53 E12.33485
G1 X60.175 Y58.649 E12.36495
G1 X60.733 Y58.845 E12.39507
G1 X61.259 Y59.115 E12.42518
G1 X61.744 Y59.453 E12.45529
G1 X62.203 Y59.874 E12.48701
G1 X62.591 Y60.32 E12.51712
G1 X62.917 Y60.814 E12.54726
G1 X63.172 Y61.347 E12.57736
G1 X63.354 Y61.909 E12.60744
G1 X63.458 Y62.491 E12.63755
G1 X63.484 Y62.968 E12.66188
G1 X63.484 Y82.712 E13.66744
G1 X63.444 Y83.302 E13.69755
G1 X63.325 Y83.881 E13.72766
G1 X63.129 Y84.439 E13.75778
G1 X62.859 Y84.965 E13.78789
G1 X62.521 Y85.45 E13.818
G1 X62.1 Y85.909 E13.84972
G1 X61.654 Y86.297 E13.87983
G1 X61.16 Y86.623 E13.90997
G1 X60.627 Y86.878 E13.94006
G1 X60.065 Y87.06 E13.97015
G1 X59.483 Y87.164 E14.00026
G1 X59.006 Y87.19 E14.02459
G1 X39.262 Y87.19 E15.03014
G1 X38.672 Y87.15 E15.06026
G1 X38.093 Y87.031 E15.09036
G1 X37.535 Y86.835 E15.12048
G1 X37.009 Y86.565 E15.1506
G1 X36.524 Y86.227 E15.1807
G1 X36.065 Y85.806 E15.21242
G1 X35.677 Y85.36 E15.24253
G1 X35.351 Y84.866 E15.27267
G1 X35.096 Y84.333 E15.30277
G1 X34.914 Y83.771 E15.33285
G1 X34.81 Y83.189 E15.36296
G1 X34.784 Y82.712 E15.38729
G1 X34.784 Y62.968 E16.39285
G1 X34.824 Y62.378 E16.42296
G1 X34.943 Y61.799 E16.45307
G1 X35.139 Y61.241 E16.48319
G1 X35.409 Y60.715 E16.5133
G1 X35.747 Y60.23 E16.54341
G1 X36.168 Y59.771 E16.57513
G1 X36.614 Y59.383 E16.60524
G1 X36.674 Y59.343 E16.60891
G0 F1620 X37.108 Y59.057
G0 F4320 X37.32 Y59.339
G1 F1800 X37.835 Y59.101 E16.6378
G1 X38.378 Y58.938 E16.66668
G1 X38.939 Y58.853 E16.69558
G1 X39.262 Y58.84 E16.71204
G1 X59.006 Y58.84 E17.71759
G1 X59.572 Y58.88 E17.74649
G1 X60.126 Y58.999 E17.77535
G1 X60.658 Y59.195 E17.80422
G1 X61.158 Y59.463 E17.83312
G1 X61.614 Y59.8 E17.86199
G1 X61.955 Y60.122 E17.88588
G1 X62.327 Y60.55 E17.91476
G1 X62.635 Y61.026 E17.94364
G1 X62.873 Y61.541 E17.97253
G1 X63.036 Y62.084 E18.0014
G1 X63.121 Y62.645 E18.0303
G1 X63.134 Y62.968 E18.04676
G1 X63.134 Y82.712 E19.05232
G1 X63.094 Y83.278 E19.08122
G1 X62.975 Y83.832 E19.11007
G1 X62.779 Y84.364 E19.13895
G1 X62.511 Y84.864 E19.16784
G1 X62.174 Y85.32 E19.19672
G1 X61.852 Y85.661 E19.22061
G1 X61.424 Y86.033 E19.24949
G1 X60.948 Y86.341 E19.27836
G1 X60.433 Y86.579 E19.30726
G1 X59.89 Y86.742 E19.33613
G1 X59.329 Y86.827 E19.36503
G1 X59.006 Y86.84 E19.38149
G1 X39.262 Y86.84 E20.38704
G1 X38.696 Y86.8 E20.41594
G1 X38.142 Y86.681 E20.4448
G1 X37.61 Y86.485 E20.47368
G1 X37.11 Y86.217 E20.50257
G1 X36.654 Y85.88 E20.53145
G1 X36.313 Y85.558 E20.55533
G1 X35.941 Y85.13 E20.58421
G1 X35.633 Y84.654 E20.61309
G1 X35.395 Y84.139 E20.64198
G1 X35.232 Y83.596 E20.67086
G1 X35.147 Y83.035 E20.69975
G1 X35.134 Y82.712 E20.71622
G1 X35.134 Y62.968 E21.72177
G1 X35.174 Y62.402 E21.75067
G1 X35.293 Y61.848 E21.77953
G1 X35.489 Y61.316 E21.8084
G1 X35.757 Y60.816 E21.83729
G1 X36.094 Y60.36 E21.86617
G1 X36.416 Y60.019 E21.89006
G1 X36.844 Y59.647 E21.91894
G1 X36.883 Y59.621 E21.92133
G0 F1620 X37.32 Y59.339
G0 F4320 X37.532 Y59.623
G1 F1800 X38.027 Y59.404 E21.94889
G1 X38.55 Y59.26 E21.97652
G1 X39.262 Y59.19 E22.01296
G1 X59.006 Y59.19 E23.01851
G1 X59.546 Y59.23 E23.04609
G1 X60.075 Y59.349 E23.0737
G1 X60.58 Y59.544 E23.10127
G1 X61.052 Y59.812 E23.12892
G1 X61.605 Y60.266 E23.16536
G1 X61.708 Y60.369 E23.17277
G1 X62.061 Y60.78 E23.20037
G1 X62.351 Y61.238 E23.22798
G1 X62.57 Y61.733 E23.25554
G1 X62.714 Y62.256 E23.28317
G1 X62.784 Y62.968 E23.31961
G1 X62.784 Y82.712 E24.32516
G1 X62.744 Y83.252 E24.35274
G1 X62.625 Y83.781 E24.38035
G1 X62.43 Y84.286 E24.40792
G1 X62.162 Y84.758 E24.43557
G1 X61.708 Y85.311 E24.47201
G1 X61.605 Y85.414 E24.47943
G1 X61.194 Y85.767 E24.50702
G1 X60.736 Y86.057 E24.53463
G1 X60.241 Y86.276 E24.56219
G1 X59.718 Y86.42 E24.58982
G1 X59.006 Y86.49 E24.62626
G1 X39.262 Y86.49 E25.63181
G1 X38.722 Y86.45 E25.65939
G1 X38.193 Y86.331 E25.687
G1 X37.688 Y86.136 E25.71457
G1 X37.216 Y85.868 E25.74222
G1 X36.663 Y85.414 E25.77866
G1 X36.56 Y85.311 E25.78608
G1 X36.207 Y84.9 E25.81367
G1 X35.917 Y84.442 E25.84128
G1 X35.698 Y83.947 E25.86884
G1 X35.554 Y83.424 E25.89647
G1 X35.484 Y82.712 E25.93291
G1 X35.484 Y62.968 E26.93846
G1 X35.524 Y62.428 E26.96604
G1 X35.643 Y61.899 E26.99365
G1 X35.838 Y61.394 E27.02122
G1 X36.106 Y60.922 E27.04887
G1 X36.56 Y60.369 E27.08531
G1 X36.663 Y60.266 E27.09273
G1 X37.074 Y59.913 E27.12032
G1 X37.093 Y59.901 E27.12146
G0 F1620 X37.532 Y59.623
G0 F4320 X37.741 Y59.908
G1 F1800 X38.216 Y59.709 E27.14769
G1 X38.717 Y59.585 E27.17398
G1 X39.262 Y59.54 E27.20183
G1 X59.006 Y59.54 E28.20738
G1 X59.52 Y59.58 E28.23364
G1 X60.021 Y59.699 E28.25987
G1 X60.498 Y59.894 E28.28611
G1 X60.94 Y60.16 E28.31238
G1 X61.357 Y60.514 E28.34024
G1 X61.46 Y60.617 E28.34766
G1 X61.795 Y61.008 E28.37388
G1 X62.066 Y61.447 E28.40016
G1 X62.265 Y61.922 E28.42639
G1 X62.389 Y62.423 E28.45267
G1 X62.434 Y62.968 E28.48052
G1 X62.434 Y82.712 E29.48608
G1 X62.394 Y83.226 E29.51233
G1 X62.275 Y83.727 E29.53856
G1 X62.08 Y84.204 E29.5648
G1 X61.814 Y84.646 E29.59108
G1 X61.46 Y85.063 E29.61894
G1 X61.357 Y85.166 E29.62635
G1 X60.966 Y85.501 E29.65258
G1 X60.527 Y85.772 E29.67885
G1 X60.052 Y85.971 E29.70508
G1 X59.551 Y86.095 E29.73137
G1 X59.006 Y86.14 E29.75922
G1 X39.262 Y86.14 E30.76477
G1 X38.748 Y86.1 E30.79103
G1 X38.247 Y85.981 E30.81725
G1 X37.77 Y85.786 E30.8435
G1 X37.328 Y85.52 E30.86977
G1 X36.911 Y85.166 E30.89763
G1 X36.808 Y85.063 E30.90505
G1 X36.473 Y84.672 E30.93127
G1 X36.202 Y84.233 E30.95755
G1 X36.003 Y83.758 E30.98378
G1 X35.879 Y83.257 E31.01006
G1 X35.834 Y82.712 E31.03791
G1 X35.834 Y62.968 E32.04347
G1 X35.874 Y62.454 E32.06972
G1 X35.993 Y61.953 E32.09595
G1 X36.188 Y61.476 E32.12219
G1 X36.454 Y61.034 E32.14847
G1 X36.808 Y60.617 E32.17633
G1 X36.911 Y60.514 E32.18374
G1 X37.299 Y60.182 E32.20975
G0 F1620 X37.302 Y60.179
G0 X37.741 Y59.908
G0 F4320 X37.948 Y60.196
G1 F1800 X38.402 Y60.017 E32.23461
G1 X38.878 Y59.915 E32.2594
G1 X39.262 Y59.89 E32.279
G1 X59.006 Y59.89 E33.28455
G1 X59.492 Y59.93 E33.30939
G1 X59.965 Y60.049 E33.33423
G1 X60.412 Y60.243 E33.35904
G1 X60.821 Y60.508 E33.38386
G1 X61.213 Y60.864 E33.41083
G1 X61.528 Y61.236 E33.43566
G1 X61.778 Y61.654 E33.46046
G1 X61.957 Y62.108 E33.48532
G1 X62.059 Y62.584 E33.51011
G1 X62.084 Y62.968 E33.52971
G1 X62.084 Y82.712 E34.53526
G1 X62.044 Y83.198 E34.5601
G1 X61.925 Y83.671 E34.58494
G1 X61.731 Y84.118 E34.60976
G1 X61.466 Y84.527 E34.63458
G1 X61.11 Y84.919 E34.66154
G1 X60.738 Y85.234 E34.68637
G1 X60.32 Y85.484 E34.71118
G1 X59.866 Y85.663 E34.73603
G1 X59.39 Y85.765 E34.76082
G1 X59.006 Y85.79 E34.78042
G1 X39.262 Y85.79 E35.78598
G1 X38.776 Y85.75 E35.81081
G1 X38.303 Y85.631 E35.83565
G1 X37.856 Y85.437 E35.86047
G1 X37.447 Y85.172 E35.88529
G1 X37.055 Y84.816 E35.91226
G1 X36.74 Y84.444 E35.93708
G1 X36.49 Y84.026 E35.96189
G1 X36.311 Y83.572 E35.98674
G1 X36.209 Y83.096 E36.01154
G1 X36.184 Y82.712 E36.03113
G1 X36.184 Y62.968 E37.03669
G1 X36.224 Y62.482 E37.06152
G1 X36.343 Y62.009 E37.08636
G1 X36.537 Y61.562 E37.11118
G1 X36.802 Y61.153 E37.136
G1 X37.158 Y60.761 E37.16297
G1 X37.505 Y60.467 E37.18613
G0 F1620 X37.53 Y60.446
G0 X37.948 Y60.196
G0 F4320 X37.757 Y60.715
G1 F1800 X38.153 Y60.486 E37.20943
G1 X38.583 Y60.329 E37.23274
G1 X39.262 Y60.24 E37.26762
G1 X59.006 Y60.24 E38.27317
G1 X59.462 Y60.28 E38.29649
G1 X59.904 Y60.398 E38.31979
G1 X60.319 Y60.592 E38.34312
G1 X60.862 Y61.009 E38.37799
G1 X61.259 Y61.463 E38.4087
G1 X61.488 Y61.859 E38.432
G1 X61.645 Y62.289 E38.45531
G1 X61.734 Y62.968 E38.49019
G1 X61.734 Y82.712 E39.49574
G1 X61.694 Y83.168 E39.51906
G1 X61.576 Y83.61 E39.54236
G1 X61.382 Y84.025 E39.56569
G1 X60.965 Y84.568 E39.60056
G1 X60.511 Y84.965 E39.63127
G1 X60.115 Y85.194 E39.65457
G1 X59.685 Y85.351 E39.67788
G1 X59.006 Y85.44 E39.71276
G1 X39.262 Y85.44 E40.71831
G1 X38.806 Y85.4 E40.74163
G1 X38.364 Y85.282 E40.76493
G1 X37.949 Y85.088 E40.78826
G1 X37.406 Y84.671 E40.82313
G1 X37.009 Y84.217 E40.85384
G1 X36.78 Y83.821 E40.87714
G1 X36.623 Y83.391 E40.90045
G1 X36.534 Y82.712 E40.93533
G1 X36.534 Y62.968 E41.94088
G1 X36.574 Y62.512 E41.9642
G1 X36.692 Y62.07 E41.9875
G1 X36.886 Y61.655 E42.01083
G1 X37.303 Y61.112 E42.04569
G1 X37.366 Y61.057 E42.04995
G0 F1620 X37.757 Y60.715
G0 F4320 X37.982 Y60.985
G1 F1800 X38.355 Y60.779 E42.07166
G1 X38.76 Y60.646 E42.09337
G1 X39.262 Y60.59 E42.11909
G1 X59.006 Y60.59 E43.12464
G1 X59.43 Y60.63 E43.14633
G1 X59.84 Y60.748 E43.16806
G1 X60.22 Y60.941 E43.18977
G1 X60.615 Y61.256 E43.2155
G1 X60.989 Y61.688 E43.2446
G1 X61.195 Y62.061 E43.2663
G1 X61.328 Y62.466 E43.28801
G1 X61.384 Y62.968 E43.31374
G1 X61.384 Y82.712 E44.31929
G1 X61.344 Y83.136 E44.34098
G1 X61.226 Y83.546 E44.36271
G1 X61.033 Y83.926 E44.38442
G1 X60.718 Y84.321 E44.41015
G1 X60.286 Y84.695 E44.43925
G1 X59.913 Y84.901 E44.46095
G1 X59.508 Y85.034 E44.48266
G1 X59.006 Y85.09 E44.50839
G1 X39.262 Y85.09 E45.51394
G1 X38.838 Y85.05 E45.53563
G1 X38.428 Y84.932 E45.55736
G1 X38.048 Y84.739 E45.57906
G1 X37.653 Y84.424 E45.6048
G1 X37.279 Y83.992 E45.6339
G1 X37.073 Y83.619 E45.6556
G1 X36.94 Y83.214 E45.67731
G1 X36.884 Y82.712 E45.70303
G1 X36.884 Y62.968 E46.70859
G1 X36.924 Y62.544 E46.73028
G1 X37.042 Y62.134 E46.75201
G1 X37.235 Y61.754 E46.77371
G1 X37.55 Y61.359 E46.79944
G1 X37.589 Y61.325 E46.80208
G0 F1620 X37.982 Y60.985
G0 F4320 X38.205 Y61.256
G1 F1800 X38.552 Y61.076 E46.82199
G1 X38.93 Y60.969 E46.84199
G1 X39.262 Y60.94 E46.85897
G1 X59.006 Y60.94 E47.86452
G1 X59.396 Y60.98 E47.88449
G1 X59.77 Y61.098 E47.90446
G1 X60.112 Y61.289 E47.92441
G1 X60.47 Y61.607 E47.9488
G1 X60.718 Y61.911 E47.96878
G1 X60.898 Y62.258 E47.98869
G1 X61.005 Y62.636 E48.0087
G1 X61.034 Y62.968 E48.02567
G1 X61.034 Y82.712 E49.03122
G1 X60.994 Y83.102 E49.05119
G1 X60.876 Y83.476 E49.07116
G1 X60.685 Y83.818 E49.09111
G1 X60.367 Y84.176 E49.1155
G1 X60.063 Y84.424 E49.13548
G1 X59.716 Y84.604 E49.15539
G1 X59.338 Y84.711 E49.1754
G1 X59.006 Y84.74 E49.19237
G1 X39.262 Y84.74 E50.19792
G1 X38.872 Y84.7 E50.21789
G1 X38.498 Y84.582 E50.23786
G1 X38.156 Y84.391 E50.25781
G1 X37.798 Y84.073 E50.2822
G1 X37.55 Y83.769 E50.30218
G1 X37.37 Y83.422 E50.32209
G1 X37.263 Y83.044 E50.3421
G1 X37.234 Y82.712 E50.35907
G1 X37.234 Y62.968 E51.36463
G1 X37.274 Y62.578 E51.38459
G1 X37.392 Y62.204 E51.40457
G1 X37.583 Y61.862 E51.42452
G1 X37.816 Y61.599 E51.44241
G0 F1620 X37.901 Y61.504
G0 X38.205 Y61.256
G0 F4320 X38.426 Y61.53
G1 F1800 X38.745 Y61.377 E51.46043
G1 X39.262 Y61.29 E51.48713
G1 X59.006 Y61.29 E52.49268
G1 X59.358 Y61.33 E52.51073
G1 X59.692 Y61.447 E52.52875
G1 X60.12 Y61.751 E52.55549
G1 X60.444 Y62.132 E52.58096
G1 X60.597 Y62.451 E52.59898
G1 X60.684 Y62.968 E52.62568
G1 X60.684 Y82.712 E53.63123
G1 X60.644 Y83.064 E53.64928
G1 X60.527 Y83.398 E53.6673
G1 X60.223 Y83.826 E53.69404
G1 X59.842 Y84.15 E53.71951
G1 X59.523 Y84.303 E53.73753
G1 X59.006 Y84.39 E53.76423
G1 X39.262 Y84.39 E54.76978
G1 X38.91 Y84.35 E54.78782
G1 X38.576 Y84.233 E54.80585
G1 X38.148 Y83.929 E54.83258
G1 X37.824 Y83.548 E54.85806
G1 X37.671 Y83.229 E54.87607
G1 X37.584 Y82.712 E54.90278
G1 X37.584 Y62.968 E55.90833
G1 X37.624 Y62.616 E55.92637
G1 X37.741 Y62.282 E55.9444
G1 X38.034 Y61.87 E55.97014
G0 F1620 X38.045 Y61.854
G0 X38.426 Y61.53
G0 F4320 X38.643 Y61.808
G1 F1800 X38.931 Y61.686 E55.98607
G1 X39.262 Y61.64 E56.00309
G1 X59.006 Y61.64 E57.00865
G1 X59.316 Y61.68 E57.02457
G1 X59.606 Y61.797 E57.04049
G1 X59.975 Y62.102 E57.06487
G1 X60.166 Y62.349 E57.08078
G1 X60.288 Y62.637 E57.0967
G1 X60.334 Y62.968 E57.11372
G1 X60.334 Y82.712 E58.11928
G1 X60.294 Y83.022 E58.1352
G1 X60.177 Y83.312 E58.15112
G1 X59.872 Y83.681 E58.17551
G1 X59.625 Y83.872 E58.19141
G1 X59.337 Y83.994 E58.20734
G1 X59.006 Y84.04 E58.22436
G1 X39.262 Y84.04 E59.22991
G1 X38.952 Y84 E59.24583
G1 X38.662 Y83.883 E59.26176
G1 X38.293 Y83.578 E59.28614
G1 X38.102 Y83.331 E59.30204
G1 X37.98 Y83.043 E59.31797
