;FLAVOR:Marlin
;TIME:3419
;Filament used: 2.08606m
;Layer height: 0.175
;MINX:48.391
;MINY:24.117
;MINZ:0.263
;MAXX:88.439
;MAXY:95.883
;MAXZ:12.863
;Generated with Cura_SteamEngine 4.8.0
M140 S65
M105
M190 S65
M104 S205
M105
M109 S205
M82 ;absolute extrusion mode
G21;(metric values)
G90;(absolute positioning)
M82;(set extruder to absolute mode)
M107;(start with the fan off)
G28;(Home the printer)
G92 E0;(Reset the extruder to 0)
G0 Z5 E5 F500;(Move up and prime the nozzle)
G0 X-1 Z0;(Move outside the printable area)
G1 Y60 E8 F500;(Draw a priming/wiping line to the rear)
G1 X-1;(Move a little closer to the print area)
G1 Y10 E16 F500;(draw more priming/wiping)
G1 E15 F250;(Small retract)
G92 E0;(Zero the extruder)
G92 E0
G92 E0
G1 F2400 E-2.5
;LAYER_COUNT:73
;LAYER:0
M107
G0 F4320 X78.381 Y38.685 Z0.263
;TYPE:SKIRT
G1 F2400 E0
G1 F1800 X78.722 Y38.147 E0.02438
G1 X79.24 Y37.539 E0.05494
G1 X79.343 Y37.436 E0.06052
G1 X79.821 Y37.015 E0.0849
G1 X80.348 Y36.657 E0.10928
G1 X80.915 Y36.368 E0.13363
G1 X81.514 Y36.152 E0.158
G1 X82.136 Y36.013 E0.18239
G1 X82.932 Y35.95 E0.21295
G1 X83.259 Y35.95 E0.22546
G1 X83.895 Y35.99 E0.24985
G1 X84.52 Y36.109 E0.2742
G1 X85.126 Y36.306 E0.29859
G1 X85.702 Y36.577 E0.32295
G1 X86.24 Y36.918 E0.34732
G1 X86.848 Y37.436 E0.37789
G1 X86.951 Y37.539 E0.38347
G1 X87.372 Y38.017 E0.40784
G1 X87.73 Y38.544 E0.43223
G1 X88.019 Y39.111 E0.45658
G1 X88.235 Y39.71 E0.48095
G1 X88.374 Y40.332 E0.50534
G1 X88.437 Y41.128 E0.5359
G1 X88.439 Y78.872 E1.98036
G1 X88.399 Y79.507 E2.00471
G1 X88.28 Y80.133 E2.02909
G1 X88.083 Y80.739 E2.05348
G1 X87.812 Y81.315 E2.07784
G1 X87.471 Y81.853 E2.10222
G1 X86.953 Y82.461 E2.13279
G1 X86.85 Y82.564 E2.13836
G1 X86.372 Y82.985 E2.16274
G1 X85.845 Y83.343 E2.18712
G1 X85.278 Y83.632 E2.21147
G1 X84.679 Y83.848 E2.23584
G1 X84.057 Y83.987 E2.26023
G1 X83.261 Y84.05 E2.29079
G1 X82.933 Y84.05 E2.30335
G1 X82.297 Y84.01 E2.32773
G1 X81.672 Y83.891 E2.35208
G1 X81.066 Y83.694 E2.37647
G1 X80.49 Y83.423 E2.40083
G1 X79.952 Y83.082 E2.42521
G1 X79.344 Y82.564 E2.45577
G1 X79.241 Y82.461 E2.46135
G1 X78.82 Y81.983 E2.48572
G1 X78.462 Y81.456 E2.51011
G1 X78.173 Y80.889 E2.53446
G1 X77.957 Y80.29 E2.55883
G1 X77.818 Y79.668 E2.58322
G1 X77.755 Y78.872 E2.61378
G1 X77.754 Y41.128 E4.05824
G1 X77.794 Y40.493 E4.08259
G1 X77.913 Y39.867 E4.10698
G1 X78.093 Y39.316 E4.12916
G0 F1620 X78.11 Y39.261
G0 X78.381 Y38.685
G0 F4320 X78.73 Y38.778
G1 F1800 X79.069 Y38.266 E4.15266
G1 X79.488 Y37.787 E4.17701
G1 X79.591 Y37.684 E4.18259
G1 X80.053 Y37.279 E4.2061
G1 X80.563 Y36.937 E4.2296
G1 X81.114 Y36.664 E4.25313
G1 X81.695 Y36.465 E4.27664
G1 X82.298 Y36.343 E4.30018
G1 X82.932 Y36.3 E4.3245
G1 X83.259 Y36.3 E4.33701
G1 X83.872 Y36.34 E4.36052
G1 X84.475 Y36.459 E4.38405
G1 X85.057 Y36.656 E4.40756
G1 X85.609 Y36.926 E4.43108
G1 X86.121 Y37.266 E4.4546
G1 X86.6 Y37.684 E4.47893
G1 X86.703 Y37.787 E4.4845
G1 X87.108 Y38.249 E4.50801
G1 X87.45 Y38.759 E4.53151
G1 X87.723 Y39.31 E4.55505
G1 X87.922 Y39.891 E4.57855
G1 X88.044 Y40.494 E4.60209
G1 X88.087 Y41.128 E4.62641
G1 X88.089 Y78.872 E6.07087
G1 X88.049 Y79.485 E6.09438
G1 X87.93 Y80.088 E6.11791
G1 X87.734 Y80.67 E6.14141
G1 X87.463 Y81.222 E6.16494
G1 X87.124 Y81.734 E6.18844
G1 X86.705 Y82.213 E6.2128
G1 X86.602 Y82.316 E6.21837
G1 X86.14 Y82.721 E6.24188
G1 X85.63 Y83.063 E6.26538
G1 X85.079 Y83.336 E6.28892
G1 X84.498 Y83.535 E6.31242
G1 X83.895 Y83.657 E6.33596
G1 X83.261 Y83.7 E6.36028
G1 X82.933 Y83.7 E6.37283
G1 X82.32 Y83.66 E6.39634
G1 X81.717 Y83.541 E6.41987
G1 X81.135 Y83.344 E6.44338
G1 X80.583 Y83.074 E6.4669
G1 X80.071 Y82.734 E6.49042
G1 X79.592 Y82.316 E6.51475
G1 X79.489 Y82.213 E6.52032
G1 X79.084 Y81.751 E6.54383
G1 X78.742 Y81.241 E6.56733
G1 X78.469 Y80.69 E6.59087
G1 X78.27 Y80.109 E6.61437
G1 X78.148 Y79.506 E6.63791
G1 X78.105 Y78.872 E6.66223
G1 X78.104 Y41.128 E8.10669
G1 X78.144 Y40.515 E8.1302
G1 X78.263 Y39.912 E8.15373
G1 X78.435 Y39.405 E8.17421
G0 F1620 X78.46 Y39.33
G0 X78.73 Y38.778
G0 F4320 X79.079 Y38.875
G1 F1800 X79.417 Y38.39 E8.19684
G1 X79.838 Y37.931 E8.22067
G1 X80.284 Y37.543 E8.2433
G1 X80.778 Y37.217 E8.26595
G1 X81.311 Y36.962 E8.28856
G1 X81.873 Y36.78 E8.31117
G1 X82.455 Y36.676 E8.33379
G1 X83.259 Y36.65 E8.36458
G1 X83.849 Y36.69 E8.38721
G1 X84.428 Y36.809 E8.40983
G1 X84.986 Y37.005 E8.43247
G1 X85.512 Y37.275 E8.45509
G1 X85.997 Y37.613 E8.47772
G1 X86.456 Y38.034 E8.50155
G1 X86.844 Y38.48 E8.52417
G1 X87.17 Y38.974 E8.54683
G1 X87.425 Y39.507 E8.56944
G1 X87.607 Y40.069 E8.59205
G1 X87.711 Y40.651 E8.61467
G1 X87.737 Y41.128 E8.63295
G1 X87.739 Y78.872 E10.07741
G1 X87.699 Y79.462 E10.10004
G1 X87.58 Y80.041 E10.12267
G1 X87.384 Y80.599 E10.1453
G1 X87.114 Y81.125 E10.16793
G1 X86.776 Y81.61 E10.19055
G1 X86.355 Y82.069 E10.21439
G1 X85.909 Y82.457 E10.23701
G1 X85.415 Y82.783 E10.25966
G1 X84.882 Y83.038 E10.28227
G1 X84.32 Y83.22 E10.30488
G1 X83.738 Y83.324 E10.32751
G1 X82.933 Y83.35 E10.35833
G1 X82.343 Y83.31 E10.38096
G1 X81.764 Y83.191 E10.40358
G1 X81.206 Y82.995 E10.42622
G1 X80.68 Y82.725 E10.44884
G1 X80.195 Y82.387 E10.47147
G1 X79.736 Y81.966 E10.4953
G1 X79.348 Y81.52 E10.51793
G1 X79.022 Y81.026 E10.54058
G1 X78.767 Y80.493 E10.56319
G1 X78.585 Y79.931 E10.5858
G1 X78.481 Y79.349 E10.60842
G1 X78.455 Y78.872 E10.6267
G1 X78.454 Y41.128 E12.07116
G1 X78.494 Y40.538 E12.0938
G1 X78.613 Y39.959 E12.11642
G1 X78.775 Y39.498 E12.13512
G0 F1620 X78.809 Y39.401
G0 X79.079 Y38.875
G0 F4320 X79.427 Y38.976
G1 F1800 X79.764 Y38.52 E12.15682
G1 X80.086 Y38.179 E12.17477
G1 X80.514 Y37.807 E12.19647
G1 X80.99 Y37.499 E12.21816
G1 X81.505 Y37.261 E12.23988
G1 X82.048 Y37.098 E12.26157
G1 X82.609 Y37.013 E12.28329
G1 X83.259 Y37 E12.30817
G1 X83.825 Y37.04 E12.32988
G1 X84.379 Y37.159 E12.35157
G1 X84.911 Y37.355 E12.37327
G1 X85.411 Y37.623 E12.39498
G1 X85.867 Y37.96 E12.41668
G1 X86.208 Y38.282 E12.43462
G1 X86.58 Y38.71 E12.45633
G1 X86.888 Y39.186 E12.47802
G1 X87.126 Y39.701 E12.49974
G1 X87.289 Y40.244 E12.52143
G1 X87.374 Y40.805 E12.54315
G1 X87.387 Y41.128 E12.55552
G1 X87.389 Y78.872 E13.99998
G1 X87.349 Y79.437 E14.02166
G1 X87.23 Y79.992 E14.04338
G1 X87.034 Y80.524 E14.06507
G1 X86.766 Y81.024 E14.08679
G1 X86.429 Y81.48 E14.10848
G1 X86.107 Y81.821 E14.12643
G1 X85.679 Y82.193 E14.14814
G1 X85.203 Y82.501 E14.16983
G1 X84.688 Y82.739 E14.19154
G1 X84.145 Y82.902 E14.21324
G1 X83.584 Y82.987 E14.23496
G1 X82.933 Y83 E14.25987
G1 X82.367 Y82.96 E14.28159
G1 X81.813 Y82.841 E14.30327
G1 X81.281 Y82.645 E14.32497
G1 X80.781 Y82.377 E14.34668
G1 X80.325 Y82.04 E14.36838
G1 X79.984 Y81.718 E14.38633
G1 X79.612 Y81.29 E14.40803
G1 X79.304 Y80.814 E14.42973
G1 X79.066 Y80.299 E14.45144
G1 X78.903 Y79.756 E14.47314
G1 X78.818 Y79.195 E14.49485
G1 X78.805 Y78.872 E14.50722
G1 X78.804 Y41.128 E15.95168
G1 X78.844 Y40.562 E15.9734
G1 X78.963 Y40.008 E15.99508
G1 X79.116 Y39.595 E16.01194
G0 F1620 X79.159 Y39.476
G0 X79.427 Y38.976
G0 F4320 X79.508 Y39.554
G1 F1800 X79.776 Y39.083 E16.03268
G1 X80.23 Y38.529 E16.06009
G1 X80.333 Y38.426 E16.06566
G1 X80.744 Y38.073 E16.0864
G1 X81.202 Y37.783 E16.10714
G1 X81.697 Y37.564 E16.12786
G1 X82.22 Y37.42 E16.14862
G1 X82.932 Y37.35 E16.176
G1 X83.259 Y37.35 E16.18851
G1 X83.799 Y37.39 E16.20924
G1 X84.328 Y37.509 E16.22999
G1 X84.833 Y37.704 E16.2507
G1 X85.305 Y37.972 E16.27148
G1 X85.858 Y38.426 E16.29886
G1 X85.961 Y38.529 E16.30443
G1 X86.314 Y38.94 E16.32517
G1 X86.604 Y39.398 E16.34591
G1 X86.823 Y39.893 E16.36663
G1 X86.967 Y40.416 E16.38739
G1 X87.037 Y41.128 E16.41477
G1 X87.039 Y78.872 E17.85923
G1 X86.999 Y79.412 E17.87995
G1 X86.88 Y79.941 E17.9007
G1 X86.685 Y80.446 E17.92142
G1 X86.417 Y80.917 E17.94216
G1 X85.963 Y81.471 E17.96957
G1 X85.86 Y81.574 E17.97514
G1 X85.449 Y81.927 E17.99588
G1 X84.991 Y82.217 E18.01662
G1 X84.496 Y82.436 E18.03734
G1 X83.973 Y82.58 E18.0581
G1 X83.261 Y82.65 E18.08548
G1 X82.933 Y82.65 E18.09803
G1 X82.393 Y82.61 E18.11875
G1 X81.864 Y82.491 E18.1395
G1 X81.359 Y82.296 E18.16022
G1 X80.887 Y82.028 E18.18099
G1 X80.334 Y81.574 E18.20837
G1 X80.231 Y81.471 E18.21395
G1 X79.878 Y81.06 E18.23468
G1 X79.588 Y80.602 E18.25543
G1 X79.369 Y80.107 E18.27614
G1 X79.225 Y79.584 E18.2969
G1 X79.155 Y78.872 E18.32428
G1 X79.154 Y41.128 E19.76874
G1 X79.194 Y40.588 E19.78946
G1 X79.28 Y40.208 E19.80437
G0 F1620 X79.313 Y40.059
G0 X79.508 Y39.554
G0 F4320 X79.858 Y39.636
G1 F1800 X80.124 Y39.194 E19.82412
G1 X80.478 Y38.777 E19.84505
G1 X80.581 Y38.674 E19.85062
G1 X80.972 Y38.339 E19.87033
G1 X81.411 Y38.068 E19.89007
G1 X81.886 Y37.869 E19.90978
G1 X82.387 Y37.745 E19.92953
G1 X82.932 Y37.7 E19.95046
G1 X83.259 Y37.7 E19.96298
G1 X83.773 Y37.74 E19.98271
G1 X84.274 Y37.859 E20.00241
G1 X84.751 Y38.054 E20.02213
G1 X85.193 Y38.32 E20.04188
G1 X85.61 Y38.674 E20.06281
G1 X85.713 Y38.777 E20.06839
G1 X86.048 Y39.168 E20.08809
G1 X86.319 Y39.607 E20.10783
G1 X86.518 Y40.082 E20.12754
G1 X86.642 Y40.583 E20.14729
G1 X86.687 Y41.128 E20.16822
G1 X86.689 Y78.872 E21.61268
G1 X86.649 Y79.386 E21.63241
G1 X86.53 Y79.887 E21.65212
G1 X86.335 Y80.364 E21.67184
G1 X86.069 Y80.805 E21.69155
G1 X85.715 Y81.223 E21.71251
G1 X85.612 Y81.326 E21.71809
G1 X85.221 Y81.661 E21.73779
G1 X84.782 Y81.932 E21.75754
G1 X84.307 Y82.131 E21.77725
G1 X83.806 Y82.255 E21.797
G1 X83.261 Y82.3 E21.81793
G1 X82.933 Y82.3 E21.83048
G1 X82.419 Y82.26 E21.85021
G1 X81.918 Y82.141 E21.86991
G1 X81.441 Y81.946 E21.88964
G1 X80.999 Y81.68 E21.90938
G1 X80.582 Y81.326 E21.93031
G1 X80.479 Y81.223 E21.93589
G1 X80.144 Y80.832 E21.95559
G1 X79.873 Y80.393 E21.97533
G1 X79.674 Y79.918 E21.99504
G1 X79.55 Y79.417 E22.0148
G1 X79.505 Y78.872 E22.03572
G1 X79.504 Y41.128 E23.48018
G1 X79.544 Y40.614 E23.49991
G1 X79.622 Y40.287 E23.51278
G0 F1620 X79.663 Y40.113
G0 X79.858 Y39.636
G0 F4320 X80.207 Y39.722
G1 F1800 X80.472 Y39.313 E23.53143
G1 X80.828 Y38.921 E23.5517
G1 X81.2 Y38.606 E23.57035
G1 X81.618 Y38.356 E23.58899
G1 X82.072 Y38.177 E23.60767
G1 X82.548 Y38.075 E23.6263
G1 X83.259 Y38.05 E23.65352
G1 X83.745 Y38.09 E23.67219
G1 X84.218 Y38.209 E23.69085
G1 X84.665 Y38.403 E23.7095
G1 X85.074 Y38.668 E23.72815
G1 X85.466 Y39.024 E23.74841
G1 X85.781 Y39.396 E23.76707
G1 X86.031 Y39.814 E23.78571
G1 X86.21 Y40.268 E23.80439
G1 X86.312 Y40.744 E23.82302
G1 X86.337 Y41.128 E23.83774
G1 X86.339 Y78.872 E25.2822
G1 X86.299 Y79.358 E25.30087
G1 X86.18 Y79.83 E25.31949
G1 X85.986 Y80.277 E25.33814
G1 X85.721 Y80.687 E25.35682
G1 X85.365 Y81.079 E25.37709
G1 X84.993 Y81.394 E25.39574
G1 X84.575 Y81.644 E25.41438
G1 X84.121 Y81.823 E25.43306
G1 X83.645 Y81.925 E25.45169
G1 X82.933 Y81.95 E25.47896
G1 X82.447 Y81.91 E25.49762
G1 X81.974 Y81.791 E25.51628
G1 X81.527 Y81.597 E25.53493
G1 X81.118 Y81.332 E25.55358
G1 X80.726 Y80.976 E25.57385
G1 X80.411 Y80.604 E25.5925
G1 X80.161 Y80.186 E25.61114
G1 X79.982 Y79.732 E25.62982
G1 X79.88 Y79.256 E25.64845
G1 X79.855 Y78.872 E25.66317
G1 X79.854 Y41.128 E27.10764
G1 X79.894 Y40.642 E27.1263
G1 X79.963 Y40.37 E27.13704
G0 F1620 X80.013 Y40.17
G0 X80.207 Y39.722
G0 F4320 X80.556 Y39.815
G1 F1800 X80.973 Y39.272 E27.16324
G1 X81.427 Y38.875 E27.18632
G1 X81.823 Y38.646 E27.20382
G1 X82.253 Y38.489 E27.22134
G1 X82.932 Y38.4 E27.24755
G1 X83.715 Y38.44 E27.27756
G1 X84.157 Y38.558 E27.29506
G1 X84.572 Y38.752 E27.3126
G1 X85.115 Y39.169 E27.3388
G1 X85.512 Y39.623 E27.36188
G1 X85.741 Y40.019 E27.37938
G1 X85.898 Y40.449 E27.3969
G1 X85.987 Y41.128 E27.42311
G1 X85.989 Y78.872 E28.86757
G1 X85.949 Y79.328 E28.88509
G1 X85.831 Y79.77 E28.9026
G1 X85.637 Y80.185 E28.92013
G1 X85.22 Y80.728 E28.94633
G1 X84.766 Y81.125 E28.96941
G1 X84.37 Y81.354 E28.98692
G1 X83.94 Y81.511 E29.00443
G1 X83.261 Y81.6 E29.03064
G1 X82.477 Y81.56 E29.06068
G1 X82.035 Y81.442 E29.07819
G1 X81.62 Y81.248 E29.09572
G1 X81.077 Y80.831 E29.12193
G1 X80.68 Y80.377 E29.14501
G1 X80.451 Y79.981 E29.16251
G1 X80.294 Y79.551 E29.18003
G1 X80.205 Y78.872 E29.20624
G1 X80.204 Y41.128 E30.6507
G1 X80.244 Y40.672 E30.66822
G1 X80.302 Y40.458 E30.6767
G0 F1620 X80.362 Y40.23
G0 X80.556 Y39.815
G0 F4320 X80.905 Y39.914
G1 F1800 X81.22 Y39.519 E30.69604
G1 X81.652 Y39.145 E30.71791
G1 X82.025 Y38.939 E30.73421
G1 X82.43 Y38.806 E30.75053
G1 X82.932 Y38.75 E30.76986
G1 X83.683 Y38.79 E30.79864
G1 X84.093 Y38.908 E30.81497
G1 X84.473 Y39.101 E30.83128
G1 X84.868 Y39.416 E30.85061
G1 X85.242 Y39.848 E30.87248
G1 X85.448 Y40.221 E30.88879
G1 X85.581 Y40.626 E30.9051
G1 X85.637 Y41.128 E30.92443
G1 X85.639 Y78.872 E32.36889
G1 X85.599 Y79.296 E32.38519
G1 X85.481 Y79.706 E32.40152
G1 X85.288 Y80.086 E32.41783
G1 X84.973 Y80.481 E32.43716
G1 X84.541 Y80.855 E32.45903
G1 X84.168 Y81.061 E32.47534
G1 X83.763 Y81.194 E32.49165
G1 X83.261 Y81.25 E32.51098
G1 X82.509 Y81.21 E32.5398
G1 X82.099 Y81.092 E32.55613
G1 X81.719 Y80.899 E32.57244
G1 X81.324 Y80.584 E32.59177
G1 X80.95 Y80.152 E32.61364
G1 X80.744 Y79.779 E32.62995
G1 X80.611 Y79.374 E32.64626
G1 X80.555 Y78.872 E32.66559
G1 X80.554 Y41.128 E34.11005
G1 X80.594 Y40.704 E34.12635
G1 X80.638 Y40.551 E34.13244
G0 F1620 X80.712 Y40.294
G0 X80.905 Y39.914
G0 F4320 X81.062 Y40.364
G1 F1800 X81.253 Y40.022 E34.14744
G1 X81.571 Y39.664 E34.16576
G1 X81.875 Y39.416 E34.18078
G1 X82.222 Y39.236 E34.19574
G1 X82.6 Y39.129 E34.21077
G1 X83.259 Y39.1 E34.23601
G1 X83.649 Y39.14 E34.25102
G1 X84.023 Y39.258 E34.26603
G1 X84.365 Y39.449 E34.28102
G1 X84.723 Y39.767 E34.29934
G1 X84.971 Y40.071 E34.31436
G1 X85.151 Y40.418 E34.32932
G1 X85.258 Y40.796 E34.34435
G1 X85.287 Y41.128 E34.35711
G1 X85.289 Y78.872 E35.80157
G1 X85.249 Y79.262 E35.81657
G1 X85.131 Y79.636 E35.83158
G1 X84.94 Y79.978 E35.84657
G1 X84.622 Y80.336 E35.86489
G1 X84.318 Y80.584 E35.87991
G1 X83.971 Y80.764 E35.89487
G1 X83.593 Y80.871 E35.9099
G1 X82.933 Y80.9 E35.93519
G1 X82.543 Y80.86 E35.95019
G1 X82.169 Y80.742 E35.9652
G1 X81.827 Y80.551 E35.98019
G1 X81.469 Y80.233 E35.99851
G1 X81.221 Y79.929 E36.01353
G1 X81.041 Y79.582 E36.02849
G1 X80.934 Y79.204 E36.04352
G1 X80.905 Y78.872 E36.05628
G1 X80.904 Y41.128 E37.50074
G1 X80.914 Y41.038 E37.5042
G0 F1620 X80.944 Y40.738
G0 X81.062 Y40.364
G0 F4320 X81.411 Y40.442
G1 F1800 X81.715 Y40.014 E37.52429
G1 X82.096 Y39.69 E37.54343
G1 X82.415 Y39.537 E37.55697
G1 X82.932 Y39.45 E37.57704
G1 X83.611 Y39.49 E37.60307
G1 X83.945 Y39.607 E37.61661
G1 X84.373 Y39.911 E37.6367
G1 X84.697 Y40.292 E37.65584
G1 X84.85 Y40.611 E37.66938
G1 X84.937 Y41.128 E37.68945
G1 X84.939 Y78.872 E39.13391
G1 X84.899 Y79.224 E39.14746
G1 X84.782 Y79.558 E39.16101
G1 X84.478 Y79.986 E39.1811
G1 X84.097 Y80.31 E39.20024
G1 X83.778 Y80.463 E39.21378
G1 X83.261 Y80.55 E39.23384
G1 X82.581 Y80.51 E39.25991
G1 X82.247 Y80.393 E39.27345
G1 X81.819 Y80.089 E39.29355
G1 X81.495 Y79.708 E39.31269
G1 X81.342 Y79.389 E39.32623
G1 X81.255 Y78.872 E39.34629
G1 X81.254 Y41.128 E40.79075
G1 X81.256 Y41.115 E40.79125
G0 F1620 X81.294 Y40.776
G0 X81.411 Y40.442
G0 F4320 X81.761 Y40.528
G1 F1800 X82.066 Y40.159 E40.80957
G1 X82.313 Y39.968 E40.82152
G1 X82.601 Y39.846 E40.83349
G1 X83.259 Y39.8 E40.85874
G1 X83.569 Y39.84 E40.8707
G1 X83.859 Y39.957 E40.88267
G1 X84.228 Y40.262 E40.90099
G1 X84.419 Y40.509 E40.91294
G1 X84.541 Y40.797 E40.92491
G1 X84.587 Y41.128 E40.9377
G1 X84.589 Y78.872 E42.38216
G1 X84.549 Y79.182 E42.39412
G1 X84.432 Y79.472 E42.40609
G1 X84.127 Y79.841 E42.42441
G1 X83.88 Y80.032 E42.43636
G1 X83.592 Y80.154 E42.44833
G1 X82.933 Y80.2 E42.47361
G1 X82.623 Y80.16 E42.48557
G1 X82.333 Y80.043 E42.49754
G1 X81.964 Y79.738 E42.51586
G1 X81.773 Y79.491 E42.52781
G1 X81.651 Y79.203 E42.53978
G1 X81.605 Y78.872 E42.55257
G1 X81.604 Y41.198 E43.99435
G0 F1620 X81.604 Y41.128
G0 X81.644 Y40.818
G0 X81.761 Y40.528
G0 F4320 X81.994 Y40.867
G1 F1800 X82.21 Y40.509 E44.01035
G1 X82.526 Y40.25 E44.02599
G1 X82.932 Y40.15 E44.04199
G1 X83.52 Y40.19 E44.06454
G1 X83.878 Y40.406 E44.08054
G1 X84.137 Y40.722 E44.09618
G1 X84.237 Y41.128 E44.11218
G1 X84.239 Y78.872 E45.55664
G1 X84.199 Y79.133 E45.56675
G1 X83.983 Y79.491 E45.58275
G1 X83.667 Y79.75 E45.59838
